X:1
T:Tom Bowling.
S:News Chronicle Songbook.
M:4/4
L:1/4
K:C
c3/4 c1/4 c F A |G3/2 F/ (F/E/) D/ C/|F E A G/A/4F/4|(E2 D) G|
w:Here, a sheer hulk, lies poor Tom Bowl -ing, The dar-ling of our__ crew;_ No
c c F3/2 A/|G3/2 F/ (F/E/) D/ C/|F E D3/2 E/|C2 z G|
w:more he'll hear the tem-pest howl -ing, For death has broached him to. His
G3/2 G/ G (A/B/)|(c/e) d/ (c/B/) A/ G/|c3/2 c/ (B/A/) (G/F/)| (E2 D) z|
w:form was of the* man -liest beau -ty, His heart was kind* and* soft;*
c c3/4 E1/4 F3/2 A/|G3/2 F/ (F/E/) D/ C/|F E D E|(F3/2 G1/4A1/4 G3/2) F/|
w:Faith-ful be-low he did his du -ty, But now he's gone a-loft,___ but
(E/G/) (c/e/) (e/d/) (c/B/)|c3 z|]
w:now* he's* gone* a -loft. 